actions/32/mail-reply-all.svg

<?xml version="1.0" encoding="UTF-8" standalone="no"?>
<svg
   xmlns:dc="http://purl.org/dc/elements/1.1/"
   xmlns:cc="http://creativecommons.org/ns#"
   xmlns:rdf="http://www.w3.org/1999/02/22-rdf-syntax-ns#"
   xmlns:svg="http://www.w3.org/2000/svg"
   xmlns="http://www.w3.org/2000/svg"
   xmlns:xlink="http://www.w3.org/1999/xlink"
   id="svg4279"
   height="32"
   width="32"
   version="1.1">
  <defs
     id="defs4281">
    <linearGradient
       gradientTransform="matrix(-0.72265023,0,0,0.67321315,38.280959,0.2708587)"
       gradientUnits="userSpaceOnUse"
       xlink:href="#linearGradient2867-449-88-871-390-598-476-591-434-148-57-177"
       id="linearGradient3339"
       y2="42.03978"
       x2="23.731871"
       y1="4.4175272"
       x1="23.731871" />
    <linearGradient
       id="linearGradient2867-449-88-871-390-598-476-591-434-148-57-177">
      <stop
         offset="0"
         style="stop-color:#90dbec;stop-opacity:1"
         id="stop3750" />
      <stop
         offset="0.26238"
         style="stop-color:#55c1ec;stop-opacity:1"
         id="stop3752" />
      <stop
         offset="0.704952"
         style="stop-color:#3689e6;stop-opacity:1"
         id="stop3754" />
      <stop
         offset="1"
         style="stop-color:#2b63a0;stop-opacity:1"
         id="stop3756" />
    </linearGradient>
    <linearGradient
       gradientTransform="matrix(0,-0.78895601,-0.84689274,0,36.992617,36.692439)"
       gradientUnits="userSpaceOnUse"
       xlink:href="#linearGradient4087"
       id="linearGradient3343"
       y2="15.991243"
       x2="20.576487"
       y1="15.991243"
       x1="38.940514" />
    <linearGradient
       id="linearGradient4087">
      <stop
         offset="0"
         style="stop-color:#ffffff;stop-opacity:1"
         id="stop4089" />
      <stop
         offset="0.51153916"
         style="stop-color:#ffffff;stop-opacity:0.23529412"
         id="stop4091" />
      <stop
         offset="0.58522105"
         style="stop-color:#ffffff;stop-opacity:0.15686275"
         id="stop4093" />
      <stop
         offset="1"
         style="stop-color:#ffffff;stop-opacity:0.39215687"
         id="stop4095" />
    </linearGradient>
    <radialGradient
       gradientTransform="matrix(0.70660609,0,0,-0.47076982,-2.0168205,39.780906)"
       gradientUnits="userSpaceOnUse"
       xlink:href="#linearGradient8662-7"
       id="radialGradient3449"
       fy="36.421127"
       fx="24.837126"
       r="15.644737"
       cy="36.421127"
       cx="24.837126" />
    <linearGradient
       id="linearGradient8662-7">
      <stop
         offset="0"
         style="stop-color:#000000;stop-opacity:1"
         id="stop8664-0" />
      <stop
         offset="1"
         style="stop-color:#000000;stop-opacity:0"
         id="stop8666-1" />
    </linearGradient>
    <radialGradient
       gradientTransform="matrix(0.70660609,0,0,-0.47076982,0.6498463,39.780906)"
       gradientUnits="userSpaceOnUse"
       xlink:href="#linearGradient8662"
       id="radialGradient3353"
       fy="36.421127"
       fx="24.837126"
       r="15.644737"
       cy="36.421127"
       cx="24.837126" />
    <linearGradient
       id="linearGradient8662">
      <stop
         offset="0"
         style="stop-color:#000000;stop-opacity:1"
         id="stop8664" />
      <stop
         offset="1"
         style="stop-color:#000000;stop-opacity:0"
         id="stop8666" />
    </linearGradient>
    <linearGradient
       gradientTransform="matrix(0,-0.78895601,-0.84689274,0,28.992212,36.692439)"
       gradientUnits="userSpaceOnUse"
       xlink:href="#linearGradient4087"
       id="linearGradient3855"
       y2="15.991243"
       x2="20.576487"
       y1="15.991243"
       x1="38.940514" />
    <linearGradient
       gradientTransform="matrix(-0.72265023,0,0,0.67321315,30.280554,0.2708583)"
       gradientUnits="userSpaceOnUse"
       xlink:href="#linearGradient4330"
       id="linearGradient3862"
       y2="51.712086"
       x2="23.731871"
       y1="5.0217633"
       x1="23.731871" />
    <linearGradient
       id="linearGradient4330">
      <stop
         id="stop4332"
         style="stop-color:#f0c1ff;stop-opacity:1"
         offset="0" />
      <stop
         id="stop4334"
         style="stop-color:#c5a3f2;stop-opacity:1"
         offset="0.26238" />
      <stop
         id="stop4336"
         style="stop-color:#7a36b1;stop-opacity:1"
         offset="0.704952" />
      <stop
         id="stop4338"
         style="stop-color:#4c2d81;stop-opacity:1"
         offset="1" />
    </linearGradient>
  </defs>
  <metadata
     id="metadata4284">
    <rdf:RDF>
      <cc:Work
         rdf:about="">
        <dc:format>image/svg+xml</dc:format>
        <dc:type
           rdf:resource="http://purl.org/dc/dcmitype/StillImage" />
        <dc:title />
      </cc:Work>
    </rdf:RDF>
  </metadata>
  <path
     d="m 26.587911,22.63493 a 11.054667,7.365074 0 1 0 -22.1093338,0 11.054667,7.365074 0 0 0 22.1093338,0 z"
     id="path3501-0"
     style="display:inline;overflow:visible;visibility:visible;opacity:0.14117647;fill:url(#radialGradient3449);fill-opacity:1;fill-rule:evenodd;stroke:none;stroke-width:1;marker:none" />
  <path
     d="M 19.217729,26.317467 C 26.72097,19.777783 23.832929,9.1111163 12.499594,8.8254195 l 0,-5.5246984 -11.77862519,9.2063419 11.77862519,9.206341 0,-5.480261 c 6.596408,-0.25605 10.512679,5.758419 5.796913,10.084324 z"
     id="path3503-80-2"
     style="display:block;overflow:visible;visibility:visible;fill:url(#linearGradient3862);fill-opacity:1;fill-rule:nonzero;stroke:none;stroke-width:0.96392488;stroke-linecap:butt;stroke-linejoin:round;stroke-miterlimit:7;stroke-dasharray:none;stroke-dashoffset:0;stroke-opacity:1;marker:none" />
  <path
     d="M 20.980325,23.110481 C 24.31833,18.5613 22.241455,9.1686821 11.499595,9.9031482 l 0,-4.5547218 -9.1286196,7.1586366 9.1286196,7.15138 0,-4.324975 c 8.762555,-0.841601 10.447691,6.244542 9.48073,7.777013 z"
     id="path3505-2-5"
     style="display:block;overflow:visible;visibility:visible;opacity:0.52999998;fill:none;stroke:url(#linearGradient3855);stroke-width:0.96392488;stroke-linecap:butt;stroke-linejoin:miter;stroke-miterlimit:7;stroke-dasharray:none;stroke-dashoffset:0;stroke-opacity:1;marker:none" />
  <path
     d="M 19.217729,26.317467 C 26.72097,19.777783 23.832929,9.1111167 12.499594,8.8254199 l 0,-5.5246984 -11.77862519,9.2063415 11.77862519,9.206341 0,-5.480261 c 6.596408,-0.25605 10.512679,5.758419 5.796913,10.084324 z"
     id="path3503-80-1"
     style="color:#000000;clip-rule:nonzero;display:inline;overflow:visible;visibility:visible;opacity:0.5;isolation:auto;mix-blend-mode:normal;color-interpolation:sRGB;color-interpolation-filters:linearRGB;solid-color:#000000;solid-opacity:1;fill:none;fill-opacity:1;fill-rule:nonzero;stroke:#6326b9;stroke-width:1;stroke-linecap:butt;stroke-linejoin:round;stroke-miterlimit:4;stroke-dasharray:none;stroke-dashoffset:0;stroke-opacity:1;marker:none;color-rendering:auto;image-rendering:auto;shape-rendering:auto;text-rendering:auto;enable-background:accumulate" />
  <path
     d="m 29.254578,22.63493 a 11.054667,7.3650738 0 1 0 -22.109334,0 11.054667,7.3650738 0 0 0 22.109334,0 z"
     id="path3501"
     style="display:inline;overflow:visible;visibility:visible;opacity:0.14117647;fill:url(#radialGradient3353);fill-opacity:1;fill-rule:evenodd;stroke:none;stroke-width:1;marker:none" />
  <path
     style="display:block;overflow:visible;visibility:visible;fill:url(#linearGradient3339);fill-opacity:1;fill-rule:nonzero;stroke:none;stroke-width:0.96392488;stroke-linecap:butt;stroke-linejoin:round;stroke-miterlimit:7;stroke-dasharray:none;stroke-dashoffset:0;stroke-opacity:1;marker:none"
     id="path3503"
     d="m 27.218134,26.317467 c 7.503241,-6.539684 4.6152,-17.2063503 -6.718135,-17.4920471 l 0,-5.5246984 -11.7786251,9.2063415 11.7786251,9.20634 0,-5.48026 c 6.596408,-0.25605 10.512679,5.758419 5.796913,10.084324 z" />
  <path
     style="display:block;overflow:visible;visibility:visible;opacity:0.52999998;fill:none;stroke:url(#linearGradient3343);stroke-width:0.96392488;stroke-linecap:butt;stroke-linejoin:miter;stroke-miterlimit:7;stroke-dasharray:none;stroke-dashoffset:0;stroke-opacity:1;marker:none"
     id="path3505"
     d="M 28.98073,23.11048 C 32.318735,18.5613 30.24186,9.1686825 19.5,9.9031486 l 0,-4.5547218 -9.12862,7.1586362 9.12862,7.15138 0,-4.324975 c 8.762555,-0.841601 10.447691,6.244542 9.48073,7.777012 z" />
  <path
     style="display:inline;overflow:visible;visibility:visible;fill:#000000;fill-opacity:0;fill-rule:nonzero;stroke:#00537d;stroke-width:1;stroke-linecap:round;stroke-linejoin:round;stroke-miterlimit:4;stroke-dasharray:none;stroke-dashoffset:0;stroke-opacity:1;marker:none;color:#000000;clip-rule:nonzero;opacity:0.5;isolation:auto;mix-blend-mode:normal;color-interpolation:sRGB;color-interpolation-filters:linearRGB;solid-color:#000000;solid-opacity:1;filter-blend-mode:normal;filter-gaussianBlur-deviation:0;color-rendering:auto;image-rendering:auto;shape-rendering:auto;text-rendering:auto;enable-background:accumulate"
     id="path3503-4"
     d="m 27.218134,26.317467 c 7.503241,-6.539684 4.6152,-17.20635 -6.718135,-17.4920468 l 0,-5.5246984 -11.7786251,9.2063412 11.7786251,9.20634 0,-5.48026 c 6.596408,-0.25605 10.512679,5.758419 5.796913,10.084324 z" />
</svg>

<svg xmlns="http://www.w3.org/2000/svg" xmlns:xlink="http://www.w3.org/1999/xlink" viewBox="0 0 32 32"><defs><linearGradient gradientTransform="matrix(-.72265 0 0 .6732 38.28 .27)" gradientUnits="userSpaceOnUse" xlink:href="#a" id="j" y2="42.04" x2="23.732" y1="4.418" x1="23.732"/><linearGradient id="a"><stop offset="0" stop-color="#90dbec"/><stop offset=".262" stop-color="#55c1ec"/><stop offset=".705" stop-color="#3689e6"/><stop offset="1" stop-color="#2b63a0"/></linearGradient><linearGradient gradientTransform="matrix(0 -.78896 -.8469 0 36.993 36.692)" gradientUnits="userSpaceOnUse" xlink:href="#b" id="k" y2="15.991" x2="20.576" y1="15.991" x1="38.941"/><linearGradient id="b"><stop offset="0" stop-color="#fff"/><stop offset=".512" stop-color="#fff" stop-opacity=".235"/><stop offset=".585" stop-color="#fff" stop-opacity=".157"/><stop offset="1" stop-color="#fff" stop-opacity=".392"/></linearGradient><radialGradient gradientTransform="matrix(.7066 0 0 -.47077 -2.017 39.78)" gradientUnits="userSpaceOnUse" xlink:href="#c" id="f" fy="36.421" fx="24.837" r="15.645" cy="36.421" cx="24.837"/><linearGradient id="c"><stop offset="0"/><stop offset="1" stop-opacity="0"/></linearGradient><radialGradient gradientTransform="matrix(.7066 0 0 -.47077 .65 39.78)" gradientUnits="userSpaceOnUse" xlink:href="#d" id="i" fy="36.421" fx="24.837" r="15.645" cy="36.421" cx="24.837"/><linearGradient id="d"><stop offset="0"/><stop offset="1" stop-opacity="0"/></linearGradient><linearGradient gradientTransform="matrix(0 -.78896 -.8469 0 28.992 36.692)" gradientUnits="userSpaceOnUse" xlink:href="#b" id="h" y2="15.991" x2="20.576" y1="15.991" x1="38.941"/><linearGradient gradientTransform="matrix(-.72265 0 0 .6732 30.28 .27)" gradientUnits="userSpaceOnUse" xlink:href="#e" id="g" y2="51.712" x2="23.732" y1="5.022" x1="23.732"/><linearGradient id="e"><stop offset="0" stop-color="#f0c1ff"/><stop offset=".262" stop-color="#c5a3f2"/><stop offset=".705" stop-color="#7a36b1"/><stop offset="1" stop-color="#4c2d81"/></linearGradient></defs><path d="M26.588 22.635a11.055 7.365 0 1 0-22.11 0 11.055 7.365 0 0 0 22.11 0z" overflow="visible" opacity=".141" fill="url(#f)" fill-rule="evenodd"/><path d="M19.218 26.317C26.72 19.777 23.833 9.11 12.5 8.825V3.3L.72 12.508l11.78 9.206v-5.48c6.596-.256 10.512 5.76 5.797 10.084z" display="block" overflow="visible" fill="url(#g)"/><path d="M20.98 23.11c3.338-4.55 1.26-13.94-9.48-13.207V5.348l-9.13 7.16 9.13 7.15v-4.325c8.762-.84 10.447 6.245 9.48 7.777z" display="block" overflow="visible" opacity=".53" fill="none" stroke="url(#h)" stroke-width=".964" stroke-miterlimit="7"/><path d="M19.218 26.317C26.72 19.777 23.833 9.11 12.5 8.825V3.3L.72 12.508l11.78 9.206v-5.48c6.596-.256 10.512 5.76 5.797 10.084z" style="isolation:auto;mix-blend-mode:normal" color="#000" overflow="visible" opacity=".5" fill="none" stroke="#6326b9" stroke-linejoin="round"/><path d="M29.255 22.635a11.055 7.365 0 1 0-22.11 0 11.055 7.365 0 0 0 22.11 0z" overflow="visible" opacity=".141" fill="url(#i)" fill-rule="evenodd"/><path d="M27.218 26.317C34.72 19.777 31.833 9.11 20.5 8.825V3.3L8.72 12.508l11.78 9.206v-5.48c6.596-.256 10.513 5.76 5.797 10.084z" display="block" overflow="visible" fill="url(#j)"/><path d="M28.98 23.11c3.34-4.55 1.262-13.94-9.48-13.207V5.348l-9.13 7.16 9.13 7.15v-4.325c8.763-.84 10.448 6.245 9.48 7.777z" display="block" overflow="visible" opacity=".53" fill="none" stroke="url(#k)" stroke-width=".964" stroke-miterlimit="7"/><path style="isolation:auto;mix-blend-mode:normal;filter-blend-mode:normal;filter-gaussianBlur-deviation:0" d="M27.218 26.317C34.72 19.777 31.833 9.11 20.5 8.825V3.3L8.72 12.508l11.78 9.206v-5.48c6.596-.256 10.513 5.76 5.797 10.084z" overflow="visible" stroke="#00537d" stroke-linecap="round" stroke-linejoin="round" color="#000" opacity=".5" fill="none"/></svg>
